X:1
T:Pase el agoa
T:Pase el agoa
T:                                                                                            Anonimo (Cancionero de Palacio)
%%score [ 1 2 3 4 ]
L:1/8
Q:3/4=120
M:3/4
K:C
V:1 treble nm="Soprano" snm="S."
V:2 treble nm="Alto" snm="A."
V:3 treble-8 nm="Tenor" snm="T."
V:4 bass nm="Bass" snm="B."
V:1
"^pas de reprise aux 2ème et 3ème couplets" A6 | c6 | A6 | F6 | G2 G2 G2 | G2 A4 | F6 | E6 | A6 | %9
w: Pa-|sèel|a-|goa,|ma Ju- li-|e- ta|da-|ma,|pa-|
 c6 | A6 | G4 G2 | A4 G2 | F2 E4 | D6 :: D2 D2 D2 | D4 D2 | (E4 D2- | D2) ^C4 | D6 :| G4 G2 | %21
w: seel|a-|goa. Ve-|ni- te|vous a|moy.|Ju m'en a-|nay en|un _|_ ver-|gel,|Tres ro-|
 G4 G2 | G4 G2 | G4 G2 | G2 G2 G2 | G2 A4 | F6 | E6 | A6 | c6 | A6 | G4 G2 | A4 G2 | F2 E4 | %34
w: se- tas|fui cu-|ller, Ma|Ju- li- o-|le- ta|da-|ma,|pa-|sèel|a-|goa. Ve-|ni- te|vous a|
 D6!D.C.! |] %35
w: moy.|
V:2
 F6 | A6 | F6 | C6 | E2 E2 E2 | E2 F4 | D6 | C6 | F6 | A6 | F6 | E4 E2 | F4 E2 | D2 ^C4 | D6 :: %15
w: Pa-|sèel|a-|goa,|ma Ju- li-|e- ta|da-|ma,|pa-|seel|a-|goa. Ve-|ni- te|vous a|moy.|
 ^F2 F2 F2 | ^F4 F2 | (G4 F2- | F2) E4 | D6 :| E4 E2 | E4 E2 | E4 E2 | E4 E2 | E2 E2 E2 | E2 F4 | %26
w: Ju m'en a-|nay en|un _|_ ver-|gel,|Tres ro-|se- tas|fui cu-|ller, Ma|Ju- li- o-|le- ta|
 D6 | C6 | F6 | A6 | F6 | E4 E2 | F4 E2 | D2 ^C4 | D6 |] %35
w: da-|ma,|pa-|sèel|a-|goa. Ve-|ni- te|vous a|moy.|
V:3
 c6 | c6 | c6 | A6 | c2 c2 c2 | c2 A4 | A6 | A6 | c6 | c6 | c6 | c4 c2 | c4 c2 | A2 A4 | A6 :: %15
w: Pa-|sèel|a-|goa,|ma Ju- li-|e- ta|da-|ma,|pa-|seel|a-|goa. Ve-|ni- te|vous a|moy.|
 A2 A2 A2 | A4 A2 | (c4 A2- | A2) A4 | A6 :| c4 c2 | c4 c2 | c4 c2 | c4 c2 | c2 c2 c2 | c2 A4 | %26
w: Ju m'en a-|nay en|un _|_ ver-|gel,|Tres ro-|se- tas|fui cu-|ller, Ma|Ju- li- o-|le- ta|
 A6 | A6 | c6 | c6 | c6 | c4 c2 | c4 c2 | A2 A4 | A6 |] %35
w: da-|ma,|pa-|sèel|a-|goa. Ve-|ni- te|vous a|moy.|
V:4
 F,6 | F,6 | F,6 | F,6 | C,2 C,2 C,2 | C,2 (F,2 D,2) | D,6 | A,,6 | F,6 | F,6 | F,6 | C,4 C,2 | %12
w: Pa-|sèel|a-|goa,|ma Ju- li-|e- ta _|da-|ma,|pa-|seel|a-|goa. Ve-|
 F,4 C,2 | D,2 A,,4 | D,6 :: E,2 E,2 E,2 | E,4 E,2 | (C,4 D,2- | D,2) A,,4 | D,6 :| C,4 C,2 | %21
w: ni- te|vous a|moy.|Ju m'en a-|nay en|un _|_ ver-|gel,|Tres ro-|
 C,4 C,2 | C,4 C,2 | C,4 C,2 | C,2 C,2 C,2 | C,2 (F,2 D,2) | D,6 | A,,6 | F,6 | F,6 | F,6 | %31
w: se- tas|fui cu-|ller, Ma|Ju- li- o-|le- ta _|da-|ma,|pa-|sèel|a-|
 C,4 C,2 | F,4 C,2 | D,2 A,,4 | D,6 |] %35
w: goa. Ve-|ni- te|vous a|moy.|

